X:1
T:Title
%%score 1 ( 2 3 ) ( 4 5 )
L:1/8
Q:1/4=110
M:3/4
K:F
V:1 treble nm="Flute, Soprano"
V:2 treble nm="Grand Piano, Staff-1"
V:3 treble 
V:4 bass nm="Choir Pad, Come, Jesus, and Bless Me"
V:5 bass 
V:1
 F2 F2 E2 | G2 G2 F2 | A2 G2 F2 | D2 C4 | A2 c2 d2 | c2 A2 F2 | C2 D2 F2 | G2 F4 | F2 E2 G2 | %9
w: By~John~Bunyan~Herbert,~1914 * *|||||||||
 C2 F2 A2 | F2 E2 G2 | C2 F4 | A2 c2 d2 | c2 A2 F2 | C2 D2 F2 | G2 F4- | F4 z2 |] %17
w: ||||||||
V:2
 [CF]2 F2 E2 | [CG]2 G2 F2 | [CFA]2 [DG]2 [DF]2 | [B,D]2 [A,C]4 | [FA]2 [Ac]2 [Bd]2 | %5
 [Ac]2 [CFA]2 [A,CF]2 | z2 D2 z2 | [B,G]2 [A,F]4 | F2 E2 G2 | C2 F2 A2 | F2 E2 G2 | C2 F4 | %12
 [FA]2 [Ac]2 [Bd]2 | [Ac]2 [CFA]2 [A,CF]2 | z2 D2 z2 | [B,G]2 [A,F]4- | [A,F]4 z2 |] %17
V:3
 z2 C4 | z2 C4 | x6 | x6 | z2 F4- | F2 z2 z2 | C2 B,2- [B,F]2 | x6 | x6 | x6 | x6 | x6 | z2 F4- | %13
 F2 z2 z2 | C2 B,2- [B,F]2 | x6 | x6 |] %17
V:4
 [F,A,]2 A,2 G,2 | [C,B,]2 B,2 A,2 | F,2 [B,,B,]4 | [D,F,]2 F,4 | z2 F,4- | F,2 [F,,F,]4 | z2 F,4 | %7
 [C,E,]2 [F,,F,]4 | [F,A,]2 [C,G,B,]4- | [C,G,B,]2 [C,F,A,]4- | [C,F,A,]2 [C,G,B,]4- | %11
 [C,G,B,]2 [F,A,]4 | z2 F,4- | F,2 [F,,F,]4 | z2 F,4 | [C,E,]2 [F,,F,]4- | [F,,F,]4 z2 |] %17
V:5
 z2 C,4 | z2 F,4 | x6 | x6 | x6 | x6 | [A,,F,]2 B,,2 D,2 | x6 | x6 | x6 | x6 | x6 | x6 | x6 | %14
 [A,,F,]2 B,,2 D,2 | x6 | x6 |] %17

